X: 4
T: Down The Back Lane
R: jig
M: 6/8
L: 1/8
K: Dmix
ABG AAG|FDE FFd|cAA BAG|Ade (3gfed|cAG AAG|FDE FFG|Add fdd|ecA ~G3:||AAd fdd|cAB cAG|AAd fdd|ecA ~G3|AAd fdd|cAB cde|faf fed|ecA ~G3:||


Tune 1496	Setting 1496

